**kern	**silbe	**kern	**silbe
*ICvox	*	*ICvox	*
*g:	*	*g:	*
*M4/4	*	*M4/4	*
*clefF4	*	*clefF4	*
r;	.	r;	.
=1	=1	=1	=1
*M2/4	*	*M2/4	*
2r	.	2r	.
=2	=2	=2	=2
*M4/4	*	*M4/4	*
1r	.	1r	.
=3	=3	=3	=3
*M2/4	*	*M2/4	*
2r	.	2r	.
=4	=4	=4	=4
*M4/4	*	*M4/4	*
1r	.	1r	.
=5	=5	=5	=5
*M2/4	*	*M2/4	*
2r	.	2r	.
=6	=6	=6	=6
*M4/4	*	*M4/4	*
1r	.	1r	.
=7	=7	=7	=7
1r	.	1r	.
=8	=8	=8	=8
1r	.	1r	.
=9	=9	=9	=9
1r	.	1r	.
=10	=10	=10	=10
1r	.	1r	.
=11	=11	=11	=11
1r	.	1r	.
=12	=12	=12	=12
8r	.	1r	.
8B-	You	.	.
8B-	got	.	.
16B-	me	.	.
16B-	loo-	.	.
8r	.	.	.
8B-	-kin'	.	.
8B-	at	.	.
8B-	that	.	.
=13	=13	=13	=13
8c	hea-	1r	.
16c	-ven	.	.
[16c	in	.	.
16c]	_	.	.
8c	your	.	.
16G	eyes	.	.
8F	_	.	.
8r	.	.	.
16r	.	.	.
16G	I	.	.
8A	was	.	.
=14	=14	=14	=14
8B-	cha-	1r	.
16B-	-sin'	.	.
[16B-	your	.	.
16B-]	_	.	.
8B-	di-	.	.
[16B-	-rec	.	.
8B-]	_	.	.
8G	tion,	.	.
16r	.	.	.
16G	I	.	.
8B-	was	.	.
=15	=15	=15	=15
8A	te-	1r	.
16A	-llin'	.	.
[16A	you	.	.
16A]	_	.	.
8A	no	.	.
[16A	lies,	.	.
16A]	_	.	.
16A	and	.	.
[8B-	I	.	.
8B-]	_	.	.
8A	was	.	.
=16	=16	=16	=16
16A	lo-	1r	.
8G	-vin'	.	.
[16G	you,	.	.
8G]	_	.	.
8r	.	.	.
8B-	when	.	.
16B-	the	.	.
[16c	words	.	.
8.c]	_	.	.
[16B-	are	.	.
=17	=17	=17	=17
16B-]	_	1r	.
16G	said,	.	.
16F	_	.	.
16r	.	.	.
4r	.	.	.
8.r	.	.	.
[16G	ba	.	.
16G]	_	.	.
16G	by,	.	.
8G	I	.	.
=18	=18	=18	=18
8G	lose	1r	.
8B-	my	.	.
4G	head.	.	.
2r	.	.	.
=19	=19	=19	=19
2r	.	1r	.
8r	.	.	.
8d	And	.	.
8d	in	.	.
8d	a	.	.
=20	=20	=20	=20
8r	.	1r	.
8e-	world	.	.
8d	of	.	.
8cq	_	.	.
8d	peo	.	.
8c	_	.	.
8c	ple,	.	.
16r	.	.	.
8.B-	there's	.	.
=21	=21	=21	=21
*	*	*clefG2	*
8d	on-	1r	.
16c	-ly	.	.
[16c	you	.	.
16c]	_	.	.
8B-	and	.	.
[16B-	I	.	.
8B-]	_	.	.
8r	.	.	.
16r	.	.	.
16d	There	.	.
8d	ain't	.	.
=22	=22	=22	=22
16e-	no-	1r	.
8e-	-thin'	.	.
[16e-	come	.	.
8e-]	_	.	.
16d	be-	.	.
[16d	-tween	.	.
16d]	_	.	.
8c	us	.	.
[16c	in	.	.
8c]	_	.	.
16B-	the	.	.
[16c	end	.	.
=23	=23	=23	=23
16c]	_	2r	.
8.B-	_	.	.
4r	.	.	.
2r	.	8r	.
.	.	[4.g [4.b- [4.dd	How
=24	=24	=24	=24
1r	.	4g] 4b-] 4dd]	_
.	.	16g 16b- 16dd	can
.	.	8g 8b- 8dd	I
.	.	16g 16b- 16dd	hold
.	.	8f 8a 8cc	_
.	.	8f 8a 8cc	you
.	.	8f 8a 8cc	when
.	.	8e- 8g 8b-	you
=25	=25	=25	=25
1r	.	8e- 8g 8b-	ain't
.	.	8d 8f 8a	e-
.	.	8d 8f 8a	-ven
.	.	[8d [8g [8b-	mine?
.	.	16d] 16g] 16b-]	_
.	.	16c 16f 16a	_
.	.	8B- 8d 8g	_
.	.	4r	.
=26	=26	=26	=26
8r	.	1r	.
16c	On-	.	.
16c	-ly	.	.
16c	you	.	.
8.c	can	.	.
8d	see	.	.
16c	me	.	.
16c	through,	.	.
4r	.	.	.
=27	=27	=27	=27
8r	.	1r	.
8d	I	.	.
8d	leave	.	.
16d	it	.	.
16d	all	.	.
8c	_	.	.
16B-	to	.	.
[16c	you!	.	.
16c]	_	.	.
16B-	_	.	.
16G	_	.	.
16r	.	.	.
=28	=28	=28	=28
8F	Do	1r	.
8G	it	.	.
8B-q	_	.	.
8c	light,	.	.
8r	.	.	.
8r	.	.	.
[8B-	ta	.	.
16B-]	_	.	.
16G	kin'	.	.
8F	me	.	.
=29	=29	=29	=29
8D	through	1r	.
8G	the	.	.
8G	night.	.	.
8r	.	.	.
8r	.	.	.
8F	Sha-	.	.
8G	-dow	.	.
8B-	dan-	.	.
=30	=30	=30	=30
8Fq	_	.	.
8.G	-cing,	1r	.
16F	_	.	.
16D	_	.	.
16C	_	.	.
8BB-	_	.	.
8r	.	.	.
[8F	ba	.	.
16F]	_	.	.
16D	by,	.	.
8C	you	.	.
=31	=31	=31	=31
8BB-	do	1r	.
16C	it	.	.
16BB-	_	.	.
8D	right,	.	.
16C	_	.	.
16BB-	_	.	.
8r	.	.	.
8c	uh-	.	.
16c	-huh!	.	.
16B-	_	.	.
8G	_	.	.
=32	=32	=32	=32
8F	Give	1r	.
8G	me	.	.
8B-q	_	.	.
4c	more!	.	.
8r	.	.	.
16d-Q	_	.	.
16cQ	_	.	.
[8B-	Drag	.	.
16B-]	_	.	.
16G	me	.	.
8F	a-	.	.
=33	=33	=33	=33
8D	-cross	1r	.
8G	the	.	.
8G	floor!	.	.
8r	.	.	.
8r	.	.	.
8F	Sha-	.	.
8G	-dow	.	.
8B-	dan-	.	.
=34	=34	=34	=34
8Fq	_	.	.
8.G	-cing,	1r	.
16F	_	.	.
16D	_	.	.
16C	_	.	.
8BB-	_	.	.
8r	.	.	.
[8F	all	.	.
16F]	_	.	.
16D	this	.	.
8C	and	.	.
=35	=35	=35	=35
*M2/4	*	*M2/4	*
8BB-	no-	2r	.
16C	-thin'	.	.
16BB-	_	.	.
8D	more!	.	.
16C	_	.	.
16BB-	_	.	.
=36	=36	=36	=36
2r	.	2r	.
=37	=37	=37	=37
*M4/4	*	*M4/4	*
1r	.	1r	.
=38	=38	=38	=38
*M2/4	*	*M2/4	*
2r	.	2r	.
=39	=39	=39	=39
*M4/4	*	*M4/4	*
1r	.	1r	.
=40	=40	=40	=40
*M2/4	*	*M2/4	*
2r	.	2r	.
=41	=41	=41	=41
*M4/4	*	*M4/4	*
1r	.	1r	.
=42	=42	=42	=42
1r	.	1r	.
=43	=43	=43	=43
1r	.	1r	.
=44	=44	=44	=44
1r	.	1r	.
=45	=45	=45	=45
1r	.	1r	.
=46	=46	=46	=46
1r	.	1r	.
=47	=47	=47	=47
8r	.	1r	.
8B-	All	.	.
16B-	that	.	.
8B-	I	.	.
[16B-	need	.	.
8B-]	_	.	.
8B-	is	.	.
8B-	just	.	.
8B-	one	.	.
=48	=48	=48	=48
8c	mo-	1r	.
16c	-ment	.	.
[16c	in	.	.
16c]	_	.	.
8c	your	.	.
16G	arms	.	.
8F	_	.	.
8r	.	.	.
16r	.	.	.
16G	I	.	.
8A	was	.	.
=49	=49	=49	=49
8B-	cha-	1r	.
16B-	-sin'	.	.
[16B-	your	.	.
16B-]	_	.	.
8B-	af-	.	.
[16B-	-ffect-	.	.
8B-]	_	.	.
8B-	-tion,	.	.
16r	.	.	.
16G	I	.	.
8B-	was	.	.
=50	=50	=50	=50
8A	do-	1r	.
16A	-in'	.	.
[16A	you	.	.
16A]	_	.	.
8A	no	.	.
[16A	harm,	.	.
16A]	_	.	.
16A	and	.	.
[8B-	I	.	.
8B-]	_	.	.
8A	was	.	.
=51	=51	=51	=51
16A	lo-	1r	.
8G	-vin'	.	.
[16G	you,	.	.
8G]	_	.	.
8r	.	.	.
12B-	make	.	.
12G	it	.	.
[12c	shine,	.	.
8c]	_	.	.
8c	make	.	.
=52	=52	=52	=52
8c	it	1r	.
16G	rain	.	.
[16F	_	.	.
8F]	_	.	.
8r	.	.	.
8.r	.	.	.
[16G	Ba	.	.
16G]	_	.	.
16G	by,	.	.
8G	I	.	.
=53	=53	=53	=53
8G	know	1r	.
8B-	my	.	.
4G	way.	.	.
2r	.	.	.
=54	=54	=54	=54
2r	.	1r	.
8r	.	.	.
8d	I	.	.
8d	need	.	.
8d	that	.	.
=55	=55	=55	=55
8r	.	1r	.
8e-	sweet	.	.
8e-	sen-	.	.
[8f	-sa	.	.
8f]	_	.	.
8cq	_	.	.
8d	tion,	.	.
16r	.	.	.
8.c	of	.	.
=56	=56	=56	=56
8d	li-	1r	.
16c	-vin'	.	.
[16c	in	.	.
16c]	_	.	.
8B-	your	.	.
[16B-	love	.	.
8B-]	_	.	.
8r	.	.	.
16r	.	.	.
16d	I	.	.
8d	can't	.	.
=57	=57	=57	=57
16e-	breathe	1r	.
8d	when	.	.
[16d	you're	.	.
8d]	_	.	.
16c	a-	.	.
[16d	-way,	.	.
16d]	_	.	.
8c	it	.	.
[16d	pulls	.	.
8d]	_	.	.
16B-	me	.	.
[16c	down	.	.
=58	=58	=58	=58
16c]	_	2r	.
16B-	_	.	.
8G	_	.	.
4r	.	.	.
2r	.	8r	.
.	.	[4.g [4.b- [4.dd	Oh,
=59	=59	=59	=59
1r	.	4g] 4b-] 4dd]	_
.	.	16g 16b- 16dd	you
.	.	8g 8b- 8dd	are
.	.	16g 16b- 16dd	the
.	.	8f 8a 8cc	ques-
.	.	8f 8a 8cc	-tion
.	.	8f 8a 8cc	and
.	.	8e- 8g 8b-	the
=60	=60	=60	=60
1r	.	8e- 8g 8b-	an-
.	.	8d 8f 8a	-swer
.	.	8d 8f 8a	am
.	.	[8d [8g [8b-	I!
.	.	16d] 16g] 16b-]	_
.	.	16c 16f 16a	_
.	.	8B- 8d 8g	_
.	.	4r	.
=61	=61	=61	=61
8r	.	1r	.
16c	On-	.	.
16c	-ly	.	.
16c	you	.	.
8.c	can	.	.
8d	see	.	.
16c	me	.	.
16c	through!	.	.
4r	.	.	.
=62	=62	=62	=62
8r	.	1r	.
8d	I	.	.
8d	leave	.	.
16d	it	.	.
16d	up	.	.
8c	_	.	.
16B-	to	.	.
[16c	you!	.	.
16c]	_	.	.
16B-	_	.	.
16G	_	.	.
16r	.	.	.
=63	=63	=63	=63
8F	Do	1r	.
8G	it	.	.
8B-q	_	.	.
8c	light,	.	.
8r	.	.	.
8r	.	.	.
[8B-	ta	.	.
16B-]	_	.	.
16G	kin'	.	.
8F	me	.	.
=64	=64	=64	=64
8D	through	1r	.
8G	the	.	.
8G	night.	.	.
8r	.	.	.
8r	.	.	.
8F	Sha-	.	.
8G	-dow	.	.
8B-	dan-	.	.
=65	=65	=65	=65
8Fq	_	.	.
8.G	-cing,	1r	.
16F	_	.	.
16D	_	.	.
16C	_	.	.
8BB-	_	.	.
8r	.	.	.
[8F	ba	.	.
16F]	_	.	.
16D	by,	.	.
8C	you	.	.
=66	=66	=66	=66
8BB-	do	1r	.
16C	it	.	.
16BB-	_	.	.
8D	right,	.	.
16C	_	.	.
16BB-	_	.	.
8r	.	.	.
8c	uh-	.	.
16c	-huh!	.	.
16B-	_	.	.
8G	_	.	.
=67	=67	=67	=67
8F	Give	1r	.
8G	me	.	.
8B-q	_	.	.
4c	more!	.	.
8r	.	.	.
16d-Q	_	.	.
16cQ	_	.	.
[8B-	Drag	.	.
16B-]	_	.	.
16G	me	.	.
8F	a-	.	.
=68	=68	=68	=68
8D	-cross	1r	.
8G	the	.	.
8G	floor!	.	.
8r	.	.	.
8r	.	.	.
8F	Sha-	.	.
8G	-dow	.	.
8B-	dan-	.	.
=69	=69	=69	=69
8Fq	_	.	.
8.G	-cing,	1r	.
16F	_	.	.
16D	_	.	.
16C	_	.	.
8BB-	_	.	.
8r	.	.	.
[8F	all	.	.
16F]	_	.	.
16D	this	.	.
8C	and	.	.
=70	=70	=70	=70
8BB-	no-	1r	.
16C	-thin'	.	.
16BB-	_	.	.
8D	more!	.	.
16C	_	.	.
16BB-	_	.	.
8r	.	.	.
8d	And	.	.
8d	in	.	.
8d	this	.	.
=71	=71	=71	=71
8r	.	1r	.
8e-	world	.	.
8e-	of	.	.
8f	peo	.	.
8cq	_	.	.
8d	ple,	.	.
8r	.	.	.
16r	.	.	.
8f	there's	.	.
[16f	on	.	.
=72	=72	=72	=72
16f]	_	1r	.
8d	ly	.	.
[16d	you	.	.
16d]	_	.	.
8c	and	.	.
8dq	_	.	.
[16c	I!	.	.
16c]	_	.	.
8.B-	_	.	.
16r	.	.	.
16d	There	.	.
8d	ain't	.	.
=73	=73	=73	=73
16e-	no-	1r	.
8e-	-thin'	.	.
[16e-	come	.	.
16e-]	_	.	.
8d	be-	.	.
[16d	-tween	.	.
16d]	_	.	.
8c	us	.	.
8cq	_	.	.
[16d	in	.	.
8d]	_	.	.
16c	the	.	.
[16c	end!	.	.
=74	=74	=74	=74
16c]	_	4r	.
16B-	_	.	.
8G	_	.	.
4r	.	8r	.
.	.	[8g [8b- [8dd	How
2r	.	2g_ 2b-_ 2dd_	_
=75	=75	=75	=75
1r	.	4g] 4b-] 4dd]	_
.	.	16g 16b- 16dd	can
.	.	8g 8b- 8dd	I
.	.	16g 16b- 16dd	hold
.	.	8f 8a 8cc	_
.	.	8f 8a 8cc	you
.	.	8f 8a 8cc	when
.	.	8e- 8g 8b-	you
=76	=76	=76	=76
1r	.	8e- 8g 8b-	ain't
.	.	8d 8f 8a	e-
.	.	8d 8f 8a	-ven
.	.	[8d [8g [8b-	mine?
.	.	16d] 16g] 16b-]	_
.	.	16c 16f 16a	_
.	.	8B- 8d 8g	_
.	.	4r	.
=77	=77	=77	=77
8r	.	1r	.
16c	On-	.	.
16c	-ly	.	.
16c	you	.	.
8.c	can	.	.
8d	see	.	.
16c	me	.	.
16c	through!	.	.
4r	.	.	.
=78	=78	=78	=78
8r	.	1r	.
8d	I	.	.
8d	leave	.	.
16d	it	.	.
16d	up	.	.
8c	_	.	.
16B-	to	.	.
[16c	you!	.	.
16c]	_	.	.
16B-	_	.	.
8r	.	.	.
=79	=79	=79	=79
8r	.	1r	.
[4.d	Oh!	.	.
8d]	_	.	.
16c	_	.	.
16B-	_	.	.
8r	.	.	.
16G	Uh!	.	.
16B-	_	.	.
=80	=80	=80	=80
8F	Do	1r	.
8G	it	.	.
8B-q	_	.	.
8c	light,	.	.
8r	.	.	.
8r	.	.	.
[8B-	ta	.	.
16B-]	_	.	.
16G	kin'	.	.
8F	me	.	.
=81	=81	=81	=81
8D	through	1r	.
8G	the	.	.
8G	night.	.	.
8r	.	.	.
8r	.	.	.
8F	Sha-	.	.
8G	-dow	.	.
8B-	dan-	.	.
=82	=82	=82	=82
8Fq	_	.	.
8.G	-cing,	1r	.
16F	_	.	.
16D	_	.	.
16C	_	.	.
8BB-	_	.	.
8r	.	.	.
[8F	ba	.	.
16F]	_	.	.
16D	by,	.	.
8C	you	.	.
=83	=83	=83	=83
8BB-	do	1r	.
16C	it	.	.
16BB-	_	.	.
8D	right,	.	.
16C	_	.	.
16BB-	_	.	.
8r	.	.	.
8c	uh-	.	.
16c	-huh!	.	.
16B-	_	.	.
8G	_	.	.
=84	=84	=84	=84
8F	Give	1r	.
8G	me	.	.
8B-q	_	.	.
4c	more!	.	.
8r	.	.	.
16d-Q	_	.	.
16cQ	_	.	.
[8B-	Drag	.	.
16B-]	_	.	.
16G	me	.	.
8F	a-	.	.
=85	=85	=85	=85
8D	-cross	1r	.
8G	the	.	.
8G	floor!	.	.
8r	.	.	.
8r	.	.	.
8F	Sha-	.	.
8G	-dow	.	.
8B-	dan-	.	.
=86	=86	=86	=86
8Fq	_	.	.
8.G	-cing,	1r	.
16F	_	.	.
16D	_	.	.
16C	_	.	.
8BB-	_	.	.
8r	.	.	.
[8F	all	.	.
16F]	_	.	.
16D	this	.	.
8C	and	.	.
=87	=87	=87	=87
8BB-	no-	1r	.
16C	-thin'	.	.
16BB-	_	.	.
8D	more!	.	.
16C	_	.	.
16BB-	_	.	.
2r	.	.	.
=88	=88	=88	=88
8F	Do	1r	.
8G	it	.	.
8B-q	_	.	.
8c	light,	.	.
8r	.	.	.
8r	.	.	.
[8B-	ta	.	.
16B-]	_	.	.
16G	kin'	.	.
8F	me	.	.
=89	=89	=89	=89
8D	through	1r	.
8G	the	.	.
8G	night.	.	.
8r	.	.	.
8r	.	.	.
8F	Sha-	.	.
8G	-dow	.	.
8B-	dan-	.	.
=90	=90	=90	=90
8Fq	_	.	.
8.G	-cing,	1r	.
16F	_	.	.
16D	_	.	.
16C	_	.	.
8BB-	_	.	.
8r	.	.	.
[8F	ba	.	.
16F]	_	.	.
16D	by,	.	.
8C	you	.	.
=91	=91	=91	=91
8BB-	do	1r	.
16C	it	.	.
16BB-	_	.	.
8D	right,	.	.
16C	_	.	.
16BB-	_	.	.
8r	.	.	.
8c	uh-	.	.
16c	-huh!	.	.
16B-	_	.	.
8G	_	.	.
=92	=92	=92	=92
8F	Give	1r	.
8G	me	.	.
8B-q	_	.	.
4c	more!	.	.
8r	.	.	.
16d-Q	_	.	.
16cQ	_	.	.
[8B-	Drag	.	.
16B-]	_	.	.
16G	me	.	.
8F	a-	.	.
=93	=93	=93	=93
8D	-cross	1r	.
8G	the	.	.
8G	floor!	.	.
8r	.	.	.
8r	.	.	.
8F	Sha-	.	.
8G	-dow	.	.
8B-	dan-	.	.
=94	=94	=94	=94
8Fq	_	.	.
8.G	-cing,	1r	.
16F	_	.	.
16D	_	.	.
16C	_	.	.
8BB-	_	.	.
8r	.	.	.
[8F	all	.	.
16F]	_	.	.
16D	this	.	.
8C	and	.	.
=95	=95	=95	=95
8BB-	no-	1r	.
16C	-thin'	.	.
16BB-	_	.	.
8D	more!	.	.
16C	_	.	.
16BB-	_	.	.
2r	.	.	.
=96	=96	=96	=96
8F	Do	1r	.
8G	it	.	.
8B-q	_	.	.
8c	light,	.	.
8r	.	.	.
8r	.	.	.
[8B-	ta	.	.
16B-]	_	.	.
16G	kin'	.	.
8F	me	.	.
=97	=97	=97	=97
8D	through	1r	.
8G	the	.	.
8G	night.	.	.
8r	.	.	.
8r	.	.	.
8F	Sha-	.	.
8G	-dow	.	.
8B-	dan-	.	.
=98	=98	=98	=98
8Fq	_	.	.
8.G	-cing,	1r	.
16F	_	.	.
16D	_	.	.
16C	_	.	.
8BB-	_	.	.
8r	.	.	.
[8F	ba	.	.
16F]	_	.	.
16D	by,	.	.
8C	you	.	.
=99	=99	=99	=99
8BB-	do	1r	.
16C	it	.	.
16BB-	_	.	.
8D	right,	.	.
16C	_	.	.
16BB-	_	.	.
16r	.	.	.
8.c	Uh-	.	.
8c	-huh!	.	.
16B-	_	.	.
16G	_	.	.
=100	=100	=100	=100
8F	Give	1r	.
8G	me	.	.
8B-q	_	.	.
4c	more!	.	.
8r	.	.	.
16d-Q	_	.	.
16cQ	_	.	.
[8B-	Drag	.	.
16B-]	_	.	.
16G	me	.	.
8F	a-	.	.
=101	=101	=101	=101
8D	-cross	1r	.
8G	the	.	.
8G	floor!	.	.
8r	.	.	.
8r	.	.	.
8F	Sha-	.	.
8G	-dow	.	.
8B-	dan-	.	.
=102	=102	=102	=102
8Fq	_	.	.
8.G	-cing,	1r	.
16F	_	.	.
16D	_	.	.
16C	_	.	.
8BB-	_	.	.
8r	.	.	.
[8F	all	.	.
16F]	_	.	.
16D	this	.	.
8C	and	.	.
=103	=103	=103	=103
8BB-	no-	1r	.
16C	-thin'	.	.
16BB-	_	.	.
8D	more!	.	.
16C	_	.	.
16BB-	_	.	.
2r	.	.	.
=104	=104	=104	=104
8F	Do	1r	.
8G	it	.	.
8B-q	_	.	.
8c	light,	.	.
8r	.	.	.
8r	.	.	.
[8B-	ta	.	.
16B-]	_	.	.
16G	kin'	.	.
8F	me	.	.
=105	=105	=105	=105
8D	through	1r	.
8G	the	.	.
8G	night.	.	.
8r	.	.	.
8r	.	.	.
8F	Sha-	.	.
8G	-dow	.	.
8B-	dan-	.	.
=106	=106	=106	=106
8Fq	_	.	.
8.G	-cing,	1r	.
16F	_	.	.
16D	_	.	.
16C	_	.	.
8BB-	_	.	.
8r	.	.	.
[8F	ba	.	.
16F]	_	.	.
16D	by,	.	.
8C	you	.	.
=107	=107	=107	=107
8BB-	do	1r	.
16C	it	.	.
16BB-	_	.	.
8D	right,	.	.
16C	_	.	.
16BB-	_	.	.
8r	.	.	.
8c	uh-	.	.
16c	-huh!	.	.
16B-	_	.	.
8G	_	.	.
=108	=108	=108	=108
8F	Give	1r	.
8G	me	.	.
8B-q	_	.	.
4c	more!	.	.
8r	.	.	.
16d-Q	_	.	.
16cQ	_	.	.
[8B-	Drag	.	.
16B-]	_	.	.
16G	me	.	.
8F	a-	.	.
=109	=109	=109	=109
8D	-cross	1r	.
8G	the	.	.
8G	floor!	.	.
8r	.	.	.
8r	.	.	.
8F	Sha-	.	.
8G	-dow	.	.
8B-	dan-	.	.
=110	=110	=110	=110
8Fq	_	.	.
8.G	-cing,	1r	.
16F	_	.	.
16D	_	.	.
16C	_	.	.
8BB-	_	.	.
8r	.	.	.
[8F	all	.	.
16F]	_	.	.
16D	this	.	.
8C	and	.	.
=111	=111	=111	=111
8BB-	no-	1r	.
16C	-thin'	.	.
16BB-	_	.	.
8D	more!	.	.
16C	_	.	.
16BB-	_	.	.
2r	.	.	.
=112	=112	=112	=112
8F	Do	1r	.
8G	it	.	.
8B-q	_	.	.
8c	light,	.	.
8r	.	.	.
8r	.	.	.
[8B-	ta	.	.
16B-]	_	.	.
16G	kin'	.	.
8F	me	.	.
=113	=113	=113	=113
8D	through	1r	.
8G	the	.	.
8G	night.	.	.
8r	.	.	.
8r	.	.	.
8F	Sha-	.	.
8G	-dow	.	.
8B-	dan-	.	.
=114	=114	=114	=114
8Fq	_	.	.
8.G	-cing,	1r	.
16F	_	.	.
16D	_	.	.
16C	_	.	.
8BB-	_	.	.
8r	.	.	.
[8F	ba	.	.
16F]	_	.	.
16D	by,	.	.
8C	you	.	.
=115	=115	=115	=115
8BB-	do	1r	.
16C	it	.	.
16BB-	_	.	.
8D	right,	.	.
16C	_	.	.
16BB-	_	.	.
8r	.	.	.
8c	uh-	.	.
16c	-huh!	.	.
16B-	_	.	.
8G	_	.	.
=116	=116	=116	=116
8F	Give	1r	.
8G	me	.	.
8B-q	_	.	.
4c	more!	.	.
8r	.	.	.
16d-Q	_	.	.
16cQ	_	.	.
[8B-	Drag	.	.
16B-]	_	.	.
16G	me	.	.
8F	a-	.	.
=117	=117	=117	=117
8D	-cross	1r	.
8G	the	.	.
8G	floor!	.	.
8r	.	.	.
8r	.	.	.
8F	Sha-	.	.
8G	-dow	.	.
8B-	dan-	.	.
=118	=118	=118	=118
8Fq	_	.	.
8.G	-cing,	1r	.
16F	_	.	.
16D	_	.	.
16C	_	.	.
8BB-	_	.	.
8r	.	.	.
[8F	all	.	.
16F]	_	.	.
16D	this	.	.
8C	and	.	.
=119	=119	=119	=119
8BB-	no-	1r	.
16C	-thin'	.	.
16BB-	_	.	.
8D	more!	.	.
16C	_	.	.
16BB-	_	.	.
2r	.	.	.
r;	.	r;	.
r;	.	r;	.
*-	*-	*-	*-
!!!ENC: Nathaniel Condit-Schultz
!!!MBID: fad43619-25b9-4024-aed7-944aadda5815
